!!!CDT:
!!!PTL: Musiche di Sigismondo d' India 
!!!PPP: Milan
!!!PPR: Simon Tini & Filippo Lomazzo
!!!PDT: 1609
!!!PUB-format:
!!!RISM: I 24
!!!AGN: Madrigal
!!!SCT: Tsg07020b
!!!SCA: Tsg07020b
!!!original-voices: 1+bc
!!!extant-voices: 1+bc
!!!complete: Y
!!!final: (G)G
!!!COM: D'India, Sigismondo
!!!OTL: Indi dicea piangendo: "In voi serbate
**kern	**fb	**kern	**text
*part2	*part2	*part1	*part1
*staff2	*staff2	*staff1	*staff1
*I"Basso continuo	*	*I"[Canto]	*
*I'Bc	*	*I'C	*
*oclefF4	*	*oclefC1	*
*clefF4	*	*clefG2	*
*k[b-]	*	*k[b-]	*
*F:	*	*F:	*
*omet(C)	*	*omet(C)	*
*M4/4	*	*M4/4	*
=1	=1	=1	=1
!!LO:TX:t=[Terza parte.]
1G	.	4b-y	E
.	.	4b-y	di-
.	.	[2b-y	-ce-
=2	=2	=2	=2
1G	.	4b-]	.
.	.	8b-y	-va
.	.	8b-y	pian-
.	.	[2b-y	-gen-
=3	=3	=3	=3
1G	.	4b-]	.
.	.	4b-y	-do: "in
.	.	[2ee-X	voi
=4	=4	=4	=4
[1F	.	4ee-]	.
.	.	8ddL	ser-
.	.	16ee-i	.
.	.	16ffJ	.
.	.	[8ee-XL	.
.	.	8ee-]J	.
.	.	8aL	-ba-
.	.	16b-y	.
.	.	16ccJ	.
=5	=5	=5	=5
2F]	.	8b-yL	.
.	.	8b-yJ	.
.	.	4a	.
2BB-y	.	2b-y	-te
=6	=6	=6	=6
1BB-y	.	2r	.
.	.	[2ff	Que-
=7	=7	=7	=7
1E-X	7:6	4ff]	.
.	.	8ee-X	-sta
.	.	8dd	do-
.	.	4dd	-len-
.	.	4cc	-te hi-
=8	=8	=8	=8
2.G	6	4.cc	-sto-
.	.	8b-y	-ria, a-
.	.	2dd	-mi-
4F	.	.	.
=9	=9	=9	=9
1F	.	8ddL	-che
.	.	8eeJ	.
.	.	8ffL	.
.	.	8ccJ	.
.	.	8aL	.
.	.	8b-yJ	.
.	.	8ccL	.
.	.	8b-yJ	.
=10	=10	=10	=10
1FF	4:3	1cc	pian-
=11	=11	=11	=11
1BB-y	.	1b-y	-te;
=12	=12	=12	=12
1F	.	4r	.
.	.	4cc	Per-
.	.	4cc	-ché,
.	.	4cc	se
=13	=13	=13	=13
2.F	.	[2cc	fia
.	.	8cc]	.
.	.	8cc	ch'a
8E-XL	.	8cc	le
8DJ	.	8dd	vo-
=14	=14	=14	=14
[1C	.	8ee-XL	-str'om-
.	.	8ddJ	.
.	.	8ccL	.
.	.	8ddJ	.
.	.	8ee-iL	.
.	.	8b-yJ	.
.	.	8aL	.
.	.	8b-yJ	.
=15	=15	=15	=15
2C]	.	8ccL	.
.	.	8b-yJ	.
.	.	8gL	.
.	.	8aJ	.
[2G	.	4.b-y	.
.	.	8f#X	-bre
=16	=16	=16	=16
4G]	.	2g	gra-
4A	6#	.	.
2G	11:#	2g	-te
=17	=17	=17	=17
1G	-	8r	.
.	.	8g	Già
.	.	8a	mai
.	.	8b-y	sog-
.	.	[2b-y	-gior-
=18	=18	=18	=18
2E-X	.	8b-]	.
.	.	8g	-ni al-
.	.	8a	-cun
.	.	8b-y	fe-
[2D	#	2cc	-del
=19	=19	=19	=19
2D]	.	16dL	A-
.	.	16e	.
.	.	16f	.
.	.	16gJ	.
.	.	16aL	.
.	.	16b-y	.
.	.	16cc	.
.	.	16ddJ	.
2C	-	4.ee-X	.
.	.	8ff	.
=20	=20	=20	=20
1D	#11:#	4f#X	.
.	.	2g	-man-
.	.	4f#X	.
=21	=21	=21	=21
1GG	.	1g	-te,
=22	=22	=22	=22
1F	.	4cc	Per-
.	.	8b-y	-ché,
.	.	8a	se
.	.	[2cc	fia
=23	=23	=23	=23
2F	.	8cc]	.
.	.	8cc	ch'a
.	.	8cc	le
.	.	8dd	vo-
2C	.	16ee-XL	-str'om-
.	.	16dd	.
.	.	16cc	.
.	.	16ddJ	.
.	.	16ee-iL	.
.	.	16b-y	.
.	.	16a	.
.	.	16b-yJ	.
=24	=24	=24	=24
2C	.	16ccL	.
.	.	16b-y	.
.	.	16g	.
.	.	16aJ	.
.	.	8.b-y	.
.	.	16f	-bre
2G	4:3	2g	gra-
=25	=25	=25	=25
1G	.	1g	-te
=26	=26	=26	=26
1G	#	4g	Già
.	.	8a	mai
.	.	8b-y	sog-
.	.	[2b-y	-gior-
=27	=27	=27	=27
1E-X	.	8b-]	.
.	.	8g	-ni al-
.	.	8a	-cun
.	.	8b-y	fe-
.	.	2cc	-del
=28	=28	=28	=28
1D	.	16dL	A-
.	.	16e	.
.	.	16f	.
.	.	16gJ	.
.	.	16aL	.
.	.	16d	.
.	.	16e	.
.	.	16fJ	.
.	.	16gL	.
.	.	16a	.
.	.	16b-y	.
.	.	16fJ	.
.	.	16gL	.
.	.	16a	.
.	.	16b-y	.
.	.	16ccJ	.
=29	=29	=29	=29
1D	.	2.dd	.
.	.	4r	.
=30	=30	=30	=30
1D	.	16ffL	-man-
.	.	16ee	.
.	.	16dd	.
.	.	16ccJ	.
.	.	16b-yL	.
.	.	16cc	.
.	.	16dd	.
.	.	16f#XJ	.
.	.	[2g	.
=31	=31	=31	=31
1DD	.	2g]	.
.	.	2f#X	.
=32	=32	=32	=32
1Dl	.	1gl	-te.
=33||	=33||	=33||	=33||
!!LO:TX:t=[Quarta parte.]
1G	.	4.b-y	Sen-
.	.	8g	-ta
.	.	8r	.
.	.	8b-y	sve-
.	.	8dd	-gliar-
.	.	8ee	-si al
=34	=34	=34	=34
1F	3:4:3	4ff	cor
.	.	2dd	dol-
.	.	8cc	-ce
.	.	8b-y	pie-
=35	=35	=35	=35
1F	.	4dd	-ta-
.	.	4.cc	.
.	.	16ddL	.
.	.	16eeJ	.
.	.	(>8aL	.
.	.	8a)J	.
=36	=36	=36	=36
1F	.	4b-y	.
.	.	4.a	.
.	.	16b-yL	.
.	.	16ccJ	.
.	.	8b-yL	.
.	.	8b-yJ	.
=37	=37	=37	=37
1FF	11:10	1cc	.
=38	=38	=38	=38
1BB-y	.	2b-y	-te
.	.	4r	.
.	.	[4ff	De
=39	=39	=39	=39
1E-X	7:6	4ff]	.
.	.	4ff	le
.	.	8ee-XL	sven-
.	.	16ff	.
.	.	16ggJ	.
.	.	[8ffL	.
.	.	8ff]J	.
=40	=40	=40	=40
2G	.	8ddL	-tu-
.	.	16ee-i	.
.	.	16ffJ	.
.	.	[8ee-XL	.
.	.	8ee-]J	.
2F	4:3	8ccL	-re
.	.	16dd	.
.	.	16ee-iJ	.
.	.	[8b-yL	.
.	.	8b-]J	.
=41	=41	=41	=41
1FF	11:10	1cc	mie
=42	=42	=42	=42
2F	.	4r	.
.	.	4cc	sì
2BB-y	.	16ddL	va-
.	.	16ee	.
.	.	16ff	.
.	.	16eeJ	.
.	.	16ddL	.
.	.	16cc	.
.	.	16b-y	.
.	.	16aJ	.
=43	=43	=43	=43
2.E-X	.	16gL	.
.	.	16f	.
.	.	16g	.
.	.	16fJ	.
.	.	16e-XL	.
.	.	16d	.
.	.	8e-iJ	.
.	.	16cL	-rie e
.	.	16d	.
.	.	16e-i	.
.	.	16fJ	.
4C	.	16gL	.
.	.	16a	.
.	.	[8b-yJ	.
=44	=44	=44	=44
2D	.	4b-]	.
.	.	4r	.
2F	.	16ccL	tan-
.	.	16b-y	.
.	.	16a	.
.	.	16gJ	.
.	.	16aL	.
.	.	16f	.
.	.	16g	.
.	.	16aJ	.
=45	=45	=45	=45
2F	6	16b-yL	.
.	.	16a	.
.	.	16b-y	.
.	.	16gJ	.
.	.	16aL	.
.	.	16b-y	.
.	.	16cc	.
.	.	16b-yJ	.
2F	3:4	16ccL	.
.	.	16a	.
.	.	16b-y	.
.	.	16ccJ	.
.	.	16ddL	.
.	.	16cc	.
.	.	16dd	.
.	.	16ccJ	.
=46	=46	=46	=46
2F	4:3	16b-yL	.
.	.	16cc	.
.	.	16dd	.
.	.	16b-yJ	.
.	.	16ccL	.
.	.	16f	.
.	.	16g	.
.	.	16aJ	.
2F	4	16b-yL	.
.	.	16g	.
.	.	16a	.
.	.	16b-yJ	.
.	.	16aL	.
.	.	16g	.
.	.	16a	.
.	.	16b-yJ	.
=47	=47	=47	=47
2F	3:4	16ccL	.
.	.	16f	.
.	.	16g	.
.	.	16aJ	.
.	.	16b-yL	.
.	.	16a	.
.	.	16b-y	.
.	.	16gJ	.
2F	3	[2a	.
=48	=48	=48	=48
1FF	3:4:3	4a]	.
.	.	2b-y	.
.	.	4a	.
=49	=49	=49	=49
1BB-y	.	2b-y	-te;
.	.	4r	.
.	.	4dd	E
=50	=50	=50	=50
1BB-y	.	2dd	di-
.	.	[2ff	-ca: ah
=51	=51	=51	=51
1F	.	4ff]	.
.	.	8ee-X	trop-
.	.	8dd	-po in-
.	.	4ee-i	-giu-
.	.	[4ee-i	-st'em-
=52	=52	=52	=52
1G	#11:#	4ee-]	.
.	.	8dd	-pia
.	.	8cc	mer-
.	.	2dd	-ce-
=53	=53	=53	=53
1G	.	2dd	-de
.	.	8b-y	Diè
.	.	8b-y	for-
.	.	[4b-y	-tu-
=54	=54	=54	=54
1E-X	.	4b-]	.
.	.	8cc	-na ed
.	.	8dd	a-
.	.	4.ee-X	-mor
.	.	8cc	a
=55	=55	=55	=55
2.C	.	4cc	sì
.	.	16ccL	gran
.	.	16b-y	.
.	.	16a	.
.	.	16b-yJ	.
.	.	16ccL	.
.	.	16dd	.
.	.	8ee-XJ	.
4D	.	8r	.
.	.	16aL	fe-
.	.	16gJ	.
=56	=56	=56	=56
1D	.	16fL	.
.	.	16g	.
.	.	16a	.
.	.	16b-yJ	.
.	.	16ccL	.
.	.	16a	.
.	.	16d	.
.	.	16enXiJ	.
.	.	16fL	.
.	.	16g	.
.	.	16e	.
.	.	16fJ	.
.	.	16gL	.
.	.	16a	.
.	.	16b-y	.
.	.	16aJ	.
=57	=57	=57	=57
1DD	#11:#	16aL	.
.	.	16a	.
.	.	16a	.
.	.	16gJ	.
.	.	4f#X	.
.	.	4g	.
.	.	4f#X	.
=58	=58	=58	=58
1D	.	1g	-de,
=59	=59	=59	=59
1BB-y	.	2r	.
.	.	4r	.
.	.	4dd	E
=60	=60	=60	=60
1BB-y	.	2dd	di-
.	.	[2ff	-ca: ah
=61	=61	=61	=61
1F	4:3	4ff]	.
.	.	8cc	trop-
.	.	8b-y	-po in-
.	.	2cc	-giu-
=62	=62	=62	=62
1F	.	8ddL	-st'em-
.	.	8eeJ	.
.	.	8ddL	.
.	.	16ee	.
.	.	16ffJ	.
.	.	[8ddL	.
.	.	8dd]J	.
.	.	8cc	.
.	.	8dd	-pia
=63	=63	=63	=63
1C	.	8ccL	.
.	.	16dd	.
.	.	16ee-XJ	.
.	.	[8ccL	.
.	.	8cc]J	.
.	.	8ee-XL	mer-
.	.	8ffJ	.
.	.	16ee-iL	.
.	.	16ff	.
.	.	8ggJ	.
=64	=64	=64	=64
1C	.	[8ee-X	.
.	.	4ee-]	.
.	.	8cc	-ce-
.	.	16ddL	.
.	.	16ee-i	.
.	.	8ccJ	.
.	.	4cc	.
=65	=65	=65	=65
1G	.	2dd	-de
.	.	8b-y	Diè
.	.	8b-y	for-
.	.	[4b-y	-tu-
=66	=66	=66	=66
1E-X	.	4b-]	.
.	.	8cc	-na ed
.	.	8dd	a-
.	.	2ee-X	-mor
=67	=67	=67	=67
1E-X	.	4r	.
.	.	4b-y	a
.	.	2b-y	sì
=68	=68	=68	=68
1C	.	16ccL	gran
.	.	16b-y	.
.	.	16a	.
.	.	16b-yJ	.
.	.	16ccL	.
.	.	16b-y	.
.	.	16cc	.
.	.	16ddJ	.
.	.	16ccL	.
.	.	16b-y	.
.	.	16cc	.
.	.	16ddJ	.
.	.	8ee-X	.
.	.	8r	.
=69	=69	=69	=69
1D	.	16aL	fe-
.	.	16g	.
.	.	16f	.
.	.	16gJ	.
.	.	16aL	.
.	.	16g	.
.	.	16a	.
.	.	16b-yJ	.
.	.	16aL	.
.	.	16g	.
.	.	16a	.
.	.	16b-yJ	.
.	.	16ccL	.
.	.	16a	.
.	.	16f	.
.	.	16gJ	.
=70	=70	=70	=70
2D	.	16aL	.
.	.	16g	.
.	.	16f	.
.	.	16gJ	.
.	.	16eL	.
.	.	16f	.
.	.	16e	.
.	.	16fJ	.
2D	4	16gL	.
.	.	16e	.
.	.	16f	.
.	.	16eJ	.
.	.	16dL	.
.	.	16e	.
.	.	16f	.
.	.	16eJ	.
=71	=71	=71	=71
1D	3	16fL	.
.	.	16g	.
.	.	16f	.
.	.	16eJ	.
.	.	16fL	.
.	.	16g	.
.	.	16a	.
.	.	16gJ	.
.	.	16fL	.
.	.	16g	.
.	.	16e	.
.	.	16fJ	.
.	.	16gL	.
.	.	16a	.
.	.	16b-y	.
.	.	16aJ	.
=72	=72	=72	=72
1D	.	16b-yL	.
.	.	16a	.
.	.	16a	.
.	.	16aJ	.
.	.	16aL	.
.	.	16g	.
.	.	(<16f#X	.
.	.	16f#i)J	.
.	.	2g	.
=73	=73	=73	=73
1DD	11:#	1a	.
=74	=74	=74	=74
1GGl	.	1gl	-de.
==	==	==	==
*-	*-	*-	*-
!!!system-decoration: [*]
!!!RDF**kern: > = above
!!!RDF**kern: < = below
!!!RDF**kern: i = editorial accidental
!!!RDF**kern: l = terminal long
!!!ENC: Emiliano Ricciardi
!!!END: 2019/08/08
!!!EED: Ricciardi, Emiliano
!!!EEV: 2019/08/08
!!!YEC: Copyright 2018 Emiliano Ricciardi, All Rights Reserved
!!!ONB: Translated from MusicXML on 2019/08/08 and edited by Craig Stuart Sapp
!!@@BEGIN:	VERSEDATA
!!@CATALOGNUM:	Tsg07020
!!@LAST_MODIFIED: 2020/07/12
!!@TITLE:		Indi dicea piangendo: in voi serbate
!!@CANTO:		VII
!!@OTTAVA:	20
!!@MANUSRC:	G-Al, G-Au, G-Br<sub>1</sub>, G-Br<sub>2</sub>, G-Es<sub>1</sub>, G-Es<sub>2</sub>, G-Es<sub>3</sub>, G-F, G-Fr, G-Fr<sub>1</sub>, G-Fr<sub>2</sub>, G-Mc<sub>1</sub>, G-Mg, G-Mr, G-Mt, G-N
!!@PRINTSRC:	G-1580CM, G-1581B, G-1581CV, G-1581R, G-1581MR, G-1581P, G-1581V, G-1581V<sub>bis</sub>, G-1582C, G-1582M, G-1582MC, G-1582P, G-1582SC, G-1582SC<sub>bis</sub>, G-1583S, G-1584O, G-1584S, G-1585C, G-1585S, G-1588S, G-1589S, G-1590B, G-1590S, G-1592S, G-1593S, G-1594C, G-1595C, G-1597C, G-1598C, G-1599C, G-1600C, G-1600S, G-1601C, G-1601R, G-1602C, G-1604C, G-1604Cl, G-1604F, G-1604P, G-1606B, G-1606B<sub>bis</sub>, G-1606L, G-1607ZR, G-1608DP, G-1609GC, G-1610M, G-1611S, G-1611V, G-1612P, G-1613M, G-1613P, G-1613V, G-1615P, G-1616M, G-1617P, G-1619B, G-1619V, G-1620M, G-1620S, G-1621R, G-1624I, G-1624MT, G-1625C, G-1625S, G-1625SS, G-1626C, G-1626Co, G-1627M, G-1628T, G-1628Tu, G-1630L, G-1630T, G-1632FT, G-1639CF, G-1642M, G-1643I, G-1644P, G-1644S
!!@@BEGIN:	VERSES
!!@ABOUTIT:
!!@ABOUTEN:
!!@EDITOR:	Angelo Solerti
!!@EDITION_TITLE: Gerusalemme liberata. Poema eroico di Torquato Tasso. Edizione critica sui manoscritti e le prime stampe.
!!@EDITION_LOC:	Florence
!!@EDITION_PUB:	G. Barbera
!!@EDITION_DATE:  1895
!!@EDITION_VOL:	2
!!@EDITION_PAGE:  260
!!@TRANSLATOR:	Emiliano Ricciardi and Amyrose McCue Gill
!!@VERSE:
!!	Indi dicea piangendo: "In voi serbate
!!	Questa dolente istoria, amiche piante;
!!	Perché, se fia ch’a le vostr’ombre grate
!!	Giammai soggiorni alcun fedele amante,
!!	Senta svegliarsi al cor dolce pietate
!!	De le sventure mie sì varie e tante;
!!	E dica: 'Ah troppo ingiusta empia mercede
!!	Diè fortuna ed amore a sì gran fede!'"
!!@MVERSE_DATE:
!!@MVERSE:
!!	In||di di|cea|| pian|gen||do:_"In voi ser|ba||te	=a++
!!	Que||sta do|len||te_i|sto||ria,_a|mi||che pian||te;	=b
!!	Per|ché||, se fia ch’a le vo||str’om||bre gra||te	=a (_ when there is ’?)
!!	Giam|mai|| sog|gior||ni_al|cun|| fe|de||le_a|man||te,	=b
!!	Sen||ta sve|gliar||si_al cor dol||ce pie|ta||te		=a++
!!	De le sven|tu||re mie sì va||rie_e tan||te;		=b
!!	E di||ca:_'Ah trop||po_in|giu||sta_em||pia mer|ce||de	=c++ (S line 7, V line 8)
!!	Diè for|tu||na_ed a|mo||re_a sì gran fe||de!'"		=c
!!@TVERSE:
!!	Then she said, weeping: "In you [is] preserved
!!	This sorrowful tale, tree friends;
!!	For, if it should be that in your welcome shadows
!!	Ever abides any faithful lover,
!!	May he feel awakening in his heart sweet compassion
!!	For my misfortunes—so varied and so many—
!!	And may he say: 'Ah, too unjust, wicked! Mercy
!!	Should grant fortune and love to such great faith.'"
!!@@END:		VERSES
!!@OTHER_CRIT_ED:  Torquato Tasso, <i>Gerusalemme liberata</i>, ed. Lanfranco Caretti, 2 vols. (Bari: Laterza, 1967).
!!@ATTRIBUTION_ABOUT:
!!@DATING:	mid-1560s through 1570s
!!@DEDICATEE:	Duke Alfonso II d'Este
!!@COMMENTARY:
!!@@END:		VERSEDATA
!!@@BEGIN: SETTING
!!@CATALOGNUM:	Tsg07020b
!!@CANTO:		VII
!!@OTTAVA:	20
!!@TITLE:		Indi dicea piangendo: "In voi serbate
!!@SETTINGTITLE:	E diceva piangendo: "in voi serbate
!!@COMPOSER:	D'India, Sigismondo
!!@PARTS:		3 of 4
!!@PRINCEPSTITLE:	Musiche di Sigismondo d' India 
!!@PRINCEPSLOC:	Milan
!!@NORMLOC:	Milan
!!@NORMPUB:	Simon Tini & Filippo Lomazzo
!!@NORMPUBSHORT:	Tini & Lomazzo
!!@PRINCEPSPUB:	Tini & Lomazzo
!!@PRINCEPSYEAR:	1609
!!@PRINCEPSRISM:	I 24
!!@OVOICES:	1+bc
!!@EXTANTVOICES:	1+bc
!!@OMENSURATION:	C
!!@OCLEFS:	C1,F4
!!@OTIME:		
!!@OKEYSIG:	b-
!!@FINAL:		(G)G
!!@TIMPEDITOR:	Ricciardi, Emiliano
!!@REPRINTS:	
!!@@END: SETTING
